assets/img/braze_icons/currency-bitcoin.svg

<svg fill="none" height="24" viewBox="0 0 24 24" width="24" xmlns="http://www.w3.org/2000/svg"><path clip-rule="evenodd" d="m9.5 1c.5523 0 1 .44772 1 1v1h2v-1c0-.55228.4477-1 1-1s1 .44772 1 1v1.02469c2.5267.25086 4.5 2.38264 4.5 4.97531 0 1.43071-.6009 2.7211-1.5641 3.6325 1.5298.855 2.5641 2.4905 2.5641 4.3675 0 2.7614-2.2386 5-5 5h-.5v1c0 .5523-.4477 1-1 1s-1-.4477-1-1v-1h-2v1c0 .5523-.4477 1-1 1-.55228 0-1-.4477-1-1v-1h-3c-.55228 0-1-.4477-1-1s.44772-1 1-1h1v-14h-1c-.55228 0-1-.44772-1-1s.44772-1 1-1h3v-1c0-.55228.44772-1 1-1zm-1 4v6h5.5c1.6569 0 3-1.34315 3-3s-1.3431-3-3-3zm0 8v6h6.5c1.6569 0 3-1.3431 3-3s-1.3431-3-3-3z" fill="#801ed7" fill-rule="evenodd"/></svg>

<svg width="24" height="24" viewBox="0 0 24 24" fill="none" xmlns="http://www.w3.org/2000/svg">
<path fill-rule="evenodd" clip-rule="evenodd" d="M9.5 1C10.0523 1 10.5 1.44772 10.5 2V3H12.5V2C12.5 1.44772 12.9477 1 13.5 1C14.0523 1 14.5 1.44772 14.5 2V3.02469C17.0267 3.27555 19 5.40733 19 8C19 9.43071 18.3991 10.7211 17.4359 11.6325C18.9657 12.4875 20 14.123 20 16C20 18.7614 17.7614 21 15 21H14.5V22C14.5 22.5523 14.0523 23 13.5 23C12.9477 23 12.5 22.5523 12.5 22V21H10.5V22C10.5 22.5523 10.0523 23 9.5 23C8.94772 23 8.5 22.5523 8.5 22V21H5.5C4.94772 21 4.5 20.5523 4.5 20C4.5 19.4477 4.94772 19 5.5 19H6.5V5H5.5C4.94772 5 4.5 4.55228 4.5 4C4.5 3.44772 4.94772 3 5.5 3H8.5V2C8.5 1.44772 8.94772 1 9.5 1ZM8.5 5V11H14C15.6569 11 17 9.65685 17 8C17 6.34315 15.6569 5 14 5H8.5ZM8.5 13V19H15C16.6569 19 18 17.6569 18 16C18 14.3431 16.6569 13 15 13H8.5Z" fill="#801ED7"/>
</svg>
